X: 15
T: Lord St. Vincent's hornpipe
T: Vinton's hornpipe
R: hornpipe, reel
M: C|
L: 1/8
N: This tune is uncommon but not unique, it can also be found in in Ryan's
N: Mammoth Collection (Boston, 1883), a little different and in Bb.
Z: 2010 John Chambers <jc:trillian.mit.edu>
B: Anonymous manuscript tune book (1800-1840) p.25
F: http://www.asaplive.com/archive/browse_by_collection.asp
N: The asaplive.com web site is complex, and links to its files don't usually work.
K: C
gf | e2c2 c2ec | dcBA G2GF | EGcG Afdc | dcBA G2gf | e2c2 c2ag |
f2d2 d2dc | Bdgb aba^f | g2g2 g2 :||: gf | ecBc ecBc | AFEF AFEF |
defe fedc | BcdB G2ef | gcBc acBc | bcBc c'cBc | Acdf ecdB | c2c2 c2 :|


%%sep 5 1 500

